_site/img/portal.svg

<svg width="24" height="24" viewBox="0 0 24 24" fill="none" xmlns="http://www.w3.org/2000/svg">
<rect x="4.75" y="4.75" width="14.5" height="14.5" rx="1.25" stroke="#202122" stroke-width="1.5"/>
<path d="M7.75 8C7.75 7.86193 7.86193 7.75 8 7.75H16C16.1381 7.75 16.25 7.86193 16.25 8V10C16.25 10.1381 16.1381 10.25 16 10.25H8C7.86193 10.25 7.75 10.1381 7.75 10V8Z" stroke="#202122" stroke-width="1.5"/>
<path d="M7.75 13C7.75 12.8619 7.86193 12.75 8 12.75H16C16.1381 12.75 16.25 12.8619 16.25 13V16C16.25 16.1381 16.1381 16.25 16 16.25H8C7.86193 16.25 7.75 16.1381 7.75 16V13Z" stroke="#202122" stroke-width="1.5"/>
</svg>

<svg xmlns="http://www.w3.org/2000/svg" width="24" height="24" fill="none"><rect width="14.5" height="14.5" x="4.75" y="4.75" stroke="#202122" stroke-width="1.5" rx="1.25"/><path stroke="#202122" stroke-width="1.5" d="M7.75 8A.25.25 0 0 1 8 7.75h8a.25.25 0 0 1 .25.25v2a.25.25 0 0 1-.25.25H8a.25.25 0 0 1-.25-.25V8ZM7.75 13a.25.25 0 0 1 .25-.25h8a.25.25 0 0 1 .25.25v3a.25.25 0 0 1-.25.25H8a.25.25 0 0 1-.25-.25v-3Z"/></svg>
